images_sukapura_svg/cmd/sc_deletetable.svg

<svg viewBox="0 0 16 16" xmlns="http://www.w3.org/2000/svg">/&amp;amp;amp;gt;<path d="m0 5v9.5c-.00038442.276301.22369855.500384.5.5h15c.276301.000384.500384-.223699.5-.5v-9.5h-.998047v9.001953h-14.00390612v-9.001953z" fill="#69696e"/><path d="m1 5h14v9h-14z" fill="#fff"/><path d="m0 1h16v4h-16z" fill="#0a84ff"/><path d="m5 5v4h-4v1h4v4h1v-4h4v4h1v-4h4v-1h-4v-4h-1v4h-4v-4z" fill="#bababa"/><path d="m.50195312 1.0019531c-.27630145-.000384-.50038441.223699-.49999999.5v3.4980469h.99804687 14v-1h-4v-2h4.003906v3h.998047v-3.4980469c.000384-.276301-.223699-.500384-.5-.5zm.49804688.9980469h4v2h-4zm5 0h4v2h-4z" fill="#0040dd"/><path d="m8.8691406 5.9980469a1.0027597 1.0027597 0 0 0 -.6777344.2734375l-1.8808593 1.7832031a1.0027597 1.0027597 0 0 0 -.3105469.6816406v.1347657a1.0027597 1.0027597 0 0 0 .28125.6113281l1.9472656 1.9980471-1.9414062 1.960937a1.0027597 1.0027597 0 0 0 -.2871094.625v.132813a1.0027597 1.0027597 0 0 0 .296875.662109l.140625.138672h4.769531l.304688-.322266.30664.322266h4.181641v-2.28125l-1.228516-1.25 1.228516-1.359375v-2.6796875l-1.214844-1.15625a1.0027597 1.0027597 0 0 0 -1.410156.0273437l-1.869141 1.9160157-1.9140621-1.9238281a1.0027597 1.0027597 0 0 0 -.7226563-.2949219z" fill="#fff" fill-opacity=".784314"/><path d="m16 14.149904-2.605902-2.651537 2.50749-2.7777726-1.807553-1.7205859-2.580554 2.6470558-2.632865-2.6470558-1.880616 1.783872 2.632863 2.7031725-2.632863 2.660005 1.880616 1.852942 2.62981-2.77941 2.635919 2.77941z" fill="#c20618"/></svg>

<?xml version="1.0" encoding="UTF-8" standalone="no"?>
<svg
   xmlns:dc="http://purl.org/dc/elements/1.1/"
   xmlns:cc="http://creativecommons.org/ns#"
   xmlns:rdf="http://www.w3.org/1999/02/22-rdf-syntax-ns#"
   xmlns:svg="http://www.w3.org/2000/svg"
   xmlns="http://www.w3.org/2000/svg"
   xmlns:sodipodi="http://sodipodi.sourceforge.net/DTD/sodipodi-0.dtd"
   xmlns:inkscape="http://www.inkscape.org/namespaces/inkscape"
   viewBox="0 0 16 16"
   version="1.1"
   id="svg931"
   sodipodi:docname="sc_deletetable.svg"
   inkscape:version="0.92.3 (unknown)"><metadata
   id="metadata937">
  <rdf:RDF>
    <cc:Work
       rdf:about="">
      <dc:format>image/svg+xml</dc:format>
      <dc:type
         rdf:resource="http://purl.org/dc/dcmitype/StillImage" />
      <dc:title></dc:title>
    </cc:Work>
  </rdf:RDF>
</metadata>
<defs
   id="defs935" />
<sodipodi:namedview
   pagecolor="#ffffff"
   bordercolor="#666666"
   borderopacity="1"
   objecttolerance="10"
   gridtolerance="10"
   guidetolerance="10"
   inkscape:pageopacity="0"
   inkscape:pageshadow="2"
   inkscape:window-width="1366"
   inkscape:window-height="699"
   id="namedview933"
   showgrid="true"
   inkscape:snap-global="true"
   inkscape:zoom="29.5"
   inkscape:cx="11.029988"
   inkscape:cy="5.4480395"
   inkscape:window-x="0"
   inkscape:window-y="0"
   inkscape:window-maximized="1"
   inkscape:current-layer="svg931">
  <inkscape:grid
     type="xygrid"
     id="grid1488" />
</sodipodi:namedview>





     /&amp;amp;gt;
 <path
   d="m0 5v9.5c-.00038442.276301.22369855.500384.5.5h15c.276301.000384.500384-.223699.5-.5v-9.5h-.998047v9.001953h-14.00390612v-9.001953z"
   fill="#69696e"
   id="path921" />
<path
   d="m1 5h14v9h-14z"
   fill="#fff"
   id="path923" />
<path
   d="m0 1h16v4h-16z"
   fill="#0a84ff"
   id="path925" />
<path
   d="m5 5v4h-4v1h4v4h1v-4h4v4h1v-4h4v-1h-4v-4h-1v4h-4v-4z"
   fill="#bababa"
   id="path927" />
<path
   d="m.50195312 1.0019531c-.27630145-.000384-.50038441.223699-.49999999.5v3.4980469h.99804687 14v-1h-4v-2h4.003906v3h.998047v-3.4980469c.000384-.276301-.223699-.500384-.5-.5zm.49804688.9980469h4v2h-4zm5 0h4v2h-4z"
   fill="#0040dd"
   id="path929" />
<path
   style="fill:#ffffff;fill-opacity:0.78431374"
   d="M 8.8691406 5.9980469 A 1.0027597 1.0027597 0 0 0 8.1914062 6.2714844 L 6.3105469 8.0546875 A 1.0027597 1.0027597 0 0 0 6 8.7363281 L 6 8.8710938 A 1.0027597 1.0027597 0 0 0 6.28125 9.4824219 L 8.2285156 11.480469 L 6.2871094 13.441406 A 1.0027597 1.0027597 0 0 0 6 14.066406 L 6 14.199219 A 1.0027597 1.0027597 0 0 0 6.296875 14.861328 L 6.4375 15 L 11.207031 15 L 11.511719 14.677734 L 11.818359 15 L 16 15 L 16 12.71875 L 14.771484 11.46875 L 16 10.109375 L 16 7.4296875 L 14.785156 6.2734375 A 1.0027597 1.0027597 0 0 0 13.375 6.3007812 L 11.505859 8.2167969 L 9.5917969 6.2929688 A 1.0027597 1.0027597 0 0 0 8.8691406 5.9980469 z "
   id="path1490" />
<path
   inkscape:connector-curvature="0"
   style="fill:#c20618;fill-opacity:1"
   d="M 16,14.149904 13.394098,11.498367 15.901588,8.7205944 14.094035,7.0000085 11.513481,9.6470643 8.880616,7.0000085 7,8.7838805 9.632863,11.487053 7,14.147058 8.880616,16 11.510426,13.22059 14.146345,16 Z"
   id="path6" />
</svg>
